X: 11
T: Mrs. WHITBREAD'S WALTZ
B: Button & Whitaker "Twelve Elegant New Dances for the year 1810" 11
S: http://imslp.org/wiki/Button_and_Whitaker%27s_Elegant_New_Dances_for_1810_%28Various%29
Z: 2014 John Chambers <jc:trillian.mit.edu>
M: 3/8
L: 1/16
K: C
% - - - - - - - - - - - - - - - - - - - - - - - - -
% Staff layout changed to fit our page size:
V: 1 clef=treble middle=B
|:\
c4e2 | g4e2 | c2{d}cBce | d2B2G2 |\
cBcdef | g4e2 | d2{e}dcde | c4z2 \
::\
d2B2G2 | g4^f2 | e2a2g2 | g^fedef |
g2{a}g^fg2 | e2{a}g^fg2 | dedcBA | G4z2 \
::\
fgf2d2 | efe2c2 | A2d2c2 | cBAGAB |\
cBcdef | g4e2 | d2{e}dcde | c4z2 :|
% - - - - - - - - - - - - - - - - - - - - - - - - -
% Original staff layout preserved:
% First strain's bass was written in treble clef.
V: 2 clef=bass middle=d
|:\
c'2e'2g'2 | c'2e'2g'2 | c'2e'2g'2 | g2d'2g'2 |\
c'2e'2g'2 | c'2e'2g'2 | g2d'2g'2 | c'4z2 ::\
G2B2d2 | B2d2g2 | c2e2a2 | d2a2c'2 |\
B2d2g2 | c2e2g2 | d4D2 | G4z2 ::\
B2d2g2 | c2e2g2 | f2a2d'2 | g2d'2f'2 |\
c'2e'2g'2 | c'2e'2g'2 | g2d'2g'2 | c'4z2 :|
% - - - - - - - - Dance description - - - - - - - -
%%begintext align
%% 1st Lady set to 2d Gent: & turn round with both hands,
%% 1st Gent: do the same,
%% down the mid: foot it & swing corners.
%%endtext
% - - - - - - - - - - - - - - - - - - - - - - - - -
%%sep 2 5 100

%%sep 1 1 500
%%sep 1 1 500
